src/assets/filled/VideoAdd.svg

<svg width="24" height="24" viewBox="0 0 24 24"  xmlns="http://www.w3.org/2000/svg">
<path d="M14.73 5.86V2.5C14.73 2.22 14.51 2 14.23 2H9.77002C9.49002 2 9.27002 2.22 9.27002 2.5V5.86C9.27002 6.14 9.49002 6.36 9.77002 6.36H14.23C14.51 6.36 14.73 6.14 14.73 5.86Z" />
<path d="M7.24998 2.01997C4.68998 2.17997 2.93998 3.49997 2.28998 5.69997C2.18998 6.02997 2.42998 6.35997 2.76998 6.35997H7.26998C7.54998 6.35997 7.76998 6.13997 7.76998 5.85997V2.51997C7.76998 2.23997 7.52998 1.99997 7.24998 2.01997Z" />
<path d="M16.75 2.00996C19.31 2.16996 21.06 3.48996 21.71 5.68996C21.81 6.01996 21.57 6.34996 21.23 6.34996H16.73C16.45 6.34996 16.23 6.12996 16.23 5.84996V2.50996C16.23 2.22996 16.47 1.98996 16.75 2.00996Z" />
<path d="M22 15.7C22 15.69 21.99 15.68 21.98 15.67C21.94 15.61 21.89 15.55 21.84 15.5C21.83 15.49 21.82 15.47 21.81 15.46C21 14.56 19.81 14 18.5 14C17.24 14 16.09 14.52 15.27 15.36C14.48 16.17 14 17.28 14 18.5C14 19.34 14.24 20.14 14.65 20.82C14.87 21.19 15.15 21.53 15.47 21.81C15.49 21.82 15.5 21.83 15.51 21.84C15.56 21.89 15.61 21.93 15.67 21.98C15.67 21.98 15.67 21.98 15.68 21.98C15.69 21.99 15.7 22 15.71 22C16.46 22.63 17.43 23 18.5 23C20.14 23 21.57 22.12 22.35 20.82C22.58 20.43 22.76 20 22.87 19.55C22.96 19.21 23 18.86 23 18.5C23 17.44 22.63 16.46 22 15.7ZM20.18 19.23H19.25V20.2C19.25 20.61 18.91 20.95 18.5 20.95C18.09 20.95 17.75 20.61 17.75 20.2V19.23H16.82C16.41 19.23 16.07 18.89 16.07 18.48C16.07 18.07 16.41 17.73 16.82 17.73H17.75V16.84C17.75 16.43 18.09 16.09 18.5 16.09C18.91 16.09 19.25 16.43 19.25 16.84V17.73H20.18C20.59 17.73 20.93 18.07 20.93 18.48C20.93 18.89 20.6 19.23 20.18 19.23Z" />
<path d="M22 8.36011V12.7401C22 13.1101 21.61 13.3501 21.28 13.1801C20.44 12.7401 19.48 12.5001 18.5 12.5001C16.89 12.5001 15.32 13.1601 14.2 14.3101C13.1 15.4301 12.5 16.9201 12.5 18.5001C12.5 19.3101 12.82 20.3501 13.22 21.2201C13.38 21.5701 13.14 22.0001 12.75 22.0001H7.81C4.6 22.0001 2 19.4001 2 16.1901V8.36011C2 8.08011 2.22 7.86011 2.5 7.86011H21.5C21.78 7.86011 22 8.08011 22 8.36011Z" />
</svg>

<?xml version="1.0" encoding="UTF-8"?>
<svg width="24" height="24" viewBox="0 0 24 24" xmlns="http://www.w3.org/2000/svg">
 <path d="m14.73 5.86v-3.36c0-0.28-0.22-0.5-0.5-0.5h-4.46c-0.28 0-0.5 0.22-0.5 0.5v3.36c0 0.28 0.22 0.5 0.5 0.5h4.46c0.28 0 0.5-0.22 0.5-0.5z"/>
 <path d="m7.25 2.02c-2.56 0.16-4.31 1.48-4.96 3.68-0.1 0.33 0.14 0.66 0.48 0.66h4.5c0.28 0 0.5-0.22 0.5-0.5v-3.34c0-0.28-0.24-0.52-0.52-0.5z"/>
 <path d="m16.75 2.01c2.56 0.16 4.31 1.48 4.96 3.68 0.1 0.33-0.14 0.66-0.48 0.66h-4.5c-0.28 0-0.5-0.22-0.5-0.5v-3.34c0-0.28 0.24-0.52 0.52-0.5z"/>
 <path d="m22 15.7c0-0.01-0.01-0.02-0.02-0.03-0.04-0.06-0.09-0.12-0.14-0.17-0.01-0.01-0.02-0.03-0.03-0.04-0.81-0.9-2-1.46-3.31-1.46-1.26 0-2.41 0.52-3.23 1.36-0.79 0.81-1.27 1.92-1.27 3.14 0 0.84 0.24 1.64 0.65 2.32 0.22 0.37 0.5 0.71 0.82 0.99 0.02 0.01 0.03 0.02 0.04 0.03 0.05 0.05 0.1 0.09 0.16 0.14h0.01c0.01 0.01 0.02 0.02 0.03 0.02 0.75 0.63 1.72 1 2.79 1 1.64 0 3.07-0.88 3.85-2.18 0.23-0.39 0.41-0.82 0.52-1.27 0.09-0.34 0.13-0.69 0.13-1.05 0-1.06-0.37-2.04-1-2.8zm-1.82 3.53h-0.93v0.97c0 0.41-0.34 0.75-0.75 0.75s-0.75-0.34-0.75-0.75v-0.97h-0.93c-0.41 0-0.75-0.34-0.75-0.75s0.34-0.75 0.75-0.75h0.93v-0.89c0-0.41 0.34-0.75 0.75-0.75s0.75 0.34 0.75 0.75v0.89h0.93c0.41 0 0.75 0.34 0.75 0.75s-0.33 0.75-0.75 0.75z"/>
 <path d="m22 8.3601v4.38c0 0.37-0.39 0.61-0.72 0.44-0.84-0.44-1.8-0.68-2.78-0.68-1.61 0-3.18 0.66-4.3 1.81-1.1 1.12-1.7 2.61-1.7 4.19 0 0.81 0.32 1.85 0.72 2.72 0.16 0.35-0.08 0.78-0.47 0.78h-4.94c-3.21 0-5.81-2.6-5.81-5.81v-7.83c0-0.28 0.22-0.5 0.5-0.5h19c0.28 0 0.5 0.22 0.5 0.5z"/>
</svg>
